src/images/logos/logo-microsoft.svg

<svg width="146" height="40" viewBox="0 0 146 40" fill="none" xmlns="http://www.w3.org/2000/svg">
<path d="M3 5H17.2714L17.2703 19.2714H3V5Z" fill="white"/>
<path d="M18.7286 5H33C33 6.18777 33 7.37553 33.0001 8.5633C33.0002 12.1327 33.0004 15.702 32.9991 19.2714C29.8282 19.2708 26.657 19.271 23.4858 19.2712H23.4855C21.9001 19.2713 20.3147 19.2714 18.7294 19.2714C18.7281 15.7024 18.7283 12.1334 18.7285 8.56444C18.7285 7.37629 18.7286 6.18815 18.7286 5Z" fill="white"/>
<path d="M136.194 9.90968C134.711 9.50164 133.011 9.58164 131.696 10.4378C130.847 10.9812 130.231 11.8505 129.955 12.8138C129.728 13.5534 129.738 14.3218 129.749 15.0886V15.089C129.754 15.4284 129.758 15.7674 129.742 16.1035L129.599 16.1024C128.933 16.0974 128.267 16.0924 127.602 16.1076C127.61 16.8747 127.607 17.6417 127.605 18.4078L127.604 18.5805C127.967 18.5879 128.33 18.5872 128.692 18.5864C129.046 18.5857 129.399 18.585 129.752 18.5918C129.748 21.0328 129.749 23.4733 129.75 25.9142C129.75 26.9428 129.751 27.9714 129.751 29.0002H132.837C132.837 28.1303 132.837 27.2604 132.837 26.3905C132.837 23.7897 132.837 21.1889 132.838 18.5882C134.343 18.5857 135.849 18.5863 137.355 18.5874C137.357 19.5568 137.357 20.526 137.356 21.4951C137.355 22.7377 137.354 23.9801 137.359 25.2225C137.373 26.2528 137.548 27.3542 138.23 28.1675C138.821 28.8878 139.758 29.2167 140.664 29.2837C141.618 29.3515 142.603 29.2347 143.486 28.8515V26.3206C142.809 26.7732 141.875 26.9531 141.138 26.5409C140.699 26.2984 140.528 25.7789 140.472 25.3099C140.409 24.7776 140.415 24.2424 140.421 23.7073C140.424 23.4428 140.427 23.1781 140.421 22.9141C140.421 22.3976 140.421 21.8813 140.421 21.3649V21.3429C140.422 20.4254 140.422 19.5081 140.42 18.5907C140.744 18.5918 141.069 18.5894 141.394 18.587C142.091 18.5819 142.788 18.5768 143.486 18.6057V16.0991C143.114 16.1004 142.743 16.0997 142.371 16.099C141.724 16.0978 141.078 16.0967 140.432 16.106C140.418 15.332 140.419 14.558 140.421 13.7842C140.423 13.2701 140.424 12.756 140.42 12.2421C140.054 12.3524 139.689 12.4653 139.323 12.5782C138.673 12.7793 138.022 12.9804 137.366 13.1667C137.352 13.7351 137.354 14.3038 137.356 14.8724V14.8733C137.357 15.282 137.358 15.6906 137.353 16.0991C136.806 16.0988 136.259 16.0989 135.711 16.099H135.71C134.753 16.0993 133.795 16.0995 132.838 16.0974C132.844 15.8419 132.84 15.5857 132.837 15.3294C132.829 14.8138 132.822 14.2979 132.896 13.7865C132.987 13.1833 133.337 12.5799 133.925 12.3465C134.666 12.0423 135.495 12.2446 136.2 12.5547C136.198 12.2117 136.199 11.8687 136.199 11.5257C136.201 10.987 136.202 10.4482 136.194 9.90968Z" fill="white"/>
<path d="M67.3199 11.2229C66.9075 10.736 66.234 10.5234 65.6117 10.6178V10.6175C64.7544 10.7155 64.0233 11.4947 64.0463 12.3689C64.0106 13.1994 64.6783 13.9446 65.4796 14.0885C66.252 14.2571 67.1381 13.9305 67.5342 13.2279C67.8927 12.6045 67.8035 11.7561 67.3199 11.2229Z" fill="white"/>
<path d="M46.4459 11.0001H41.957C41.9553 16.9998 41.9561 22.9999 41.957 29.0002C42.3675 28.9997 42.7781 28.9999 43.1888 29.0001C43.7575 29.0003 44.3264 29.0005 44.8951 28.9991C44.8938 27.346 44.8941 25.6929 44.8944 24.0399V24.0082C44.8946 22.9856 44.8948 21.963 44.8946 20.9403C44.8984 20.2092 44.8963 19.4778 44.8942 18.7464V18.7448C44.8907 17.5362 44.8872 16.3276 44.9106 15.1197C44.9665 15.2077 45.0178 15.2993 45.0659 15.3937C45.7557 17.1024 46.4436 18.8121 47.1315 20.5218L47.1317 20.5223C48.2696 23.3502 49.4074 26.1783 50.5541 29.0021C50.8603 28.9973 51.1663 28.9988 51.4723 29.0002H51.4726C51.9061 29.0023 52.3395 29.0043 52.7726 28.9886C53.7835 26.4027 54.8089 23.8223 55.8344 21.242L55.835 21.2404L55.8364 21.237L55.8371 21.235C56.6095 19.2916 57.3818 17.3482 58.1478 15.4026C58.1949 15.3029 58.2486 15.2069 58.3095 15.1144C58.3233 15.3129 58.3302 15.5119 58.3286 15.711C58.3259 17.6559 58.3267 19.6006 58.3275 21.5452C58.3285 24.0279 58.3295 26.5106 58.3233 28.993C59.0033 29.0028 59.6834 29.0013 60.3636 28.9998C60.7217 28.999 61.0801 28.9982 61.4384 28.9991L61.438 27.1992C61.437 21.8001 61.4359 16.4009 61.4389 11.0017C60.9483 11.0029 60.4577 11.0015 59.9671 11.0002C59.0179 10.9976 58.0687 10.995 57.1197 11.0103C56.0378 13.7033 54.9413 16.3899 53.8448 19.0764L53.8439 19.0787L53.8437 19.0791C53.133 20.8204 52.4224 22.5616 51.7157 24.3045C51.4776 23.7449 51.2557 23.1785 51.0338 22.6121L51.0337 22.6118L51.0333 22.6106L51.033 22.6098C50.9061 22.286 50.7793 21.9621 50.6494 21.6396C50.0164 20.0345 49.3818 18.4303 48.7471 16.8261L48.7453 16.8215C47.9778 14.8814 47.2103 12.9414 46.4459 11.0001Z" fill="white"/>
<path d="M78.6908 16.1007C77.2021 15.68 75.5954 15.6628 74.1062 16.0872C72.7389 16.4814 71.4838 17.3204 70.6816 18.506C69.7241 19.8954 69.3856 21.631 69.4609 23.295C69.5356 24.895 70.1665 26.4928 71.3288 27.6131C72.3985 28.652 73.872 29.2117 75.3496 29.29C76.7941 29.3606 78.3066 29.1671 79.5686 28.4161C79.5626 27.9221 79.5634 27.4281 79.5643 26.9342C79.565 26.4964 79.5657 26.0586 79.5617 25.6208C78.7484 26.2157 77.7986 26.642 76.7921 26.7577C75.7737 26.8346 74.6828 26.5897 73.9046 25.8982C73.1553 25.2595 72.7569 24.2968 72.6576 23.3334C72.5244 22.1024 72.7027 20.7662 73.4753 19.76C74.076 18.9484 75.034 18.4271 76.0389 18.3363C77.304 18.1769 78.5663 18.6585 79.5617 19.4189C79.5659 18.9884 79.565 18.5579 79.564 18.1275C79.5628 17.5741 79.5616 17.0207 79.5714 16.4678C79.2948 16.3056 78.9978 16.1865 78.6908 16.1007Z" fill="white"/>
<path d="M112.093 16.3357C110.743 15.8239 109.249 15.6395 107.822 15.8909C106.615 16.106 105.432 16.7324 104.75 17.7774C104.154 18.674 104.077 19.8303 104.324 20.8562C104.49 21.5524 104.915 22.1694 105.477 22.6076C106.112 23.0952 106.847 23.4114 107.579 23.7263L107.58 23.7265C107.768 23.8072 107.955 23.8878 108.14 23.9712L108.193 23.9958C108.661 24.2162 109.151 24.4464 109.488 24.8529C109.861 25.3999 109.748 26.294 109.119 26.6068C108.462 26.9224 107.695 26.9169 106.989 26.8023C105.976 26.6273 105.019 26.1963 104.189 25.5937C104.182 26.1811 104.183 26.7684 104.184 27.3559V27.36C104.185 27.7657 104.186 28.1714 104.184 28.5772C105.17 29.0163 106.249 29.228 107.322 29.2975C108.833 29.354 110.476 29.0592 111.617 27.9931C112.812 26.9371 113.1 25.0658 112.42 23.6498C112.058 22.8936 111.366 22.3693 110.652 21.9679C110.244 21.7321 109.808 21.5521 109.373 21.3722C108.84 21.1519 108.307 20.9318 107.826 20.6095C107.314 20.2846 107.169 19.5731 107.378 19.0306C107.642 18.4822 108.276 18.2378 108.852 18.2153C109.998 18.1749 111.151 18.524 112.094 19.1729C112.094 18.7793 112.094 18.3858 112.094 17.9922C112.094 17.4403 112.095 16.8882 112.093 16.3357Z" fill="white"/>
<path d="M89.3373 16.0556C88.4072 15.7425 87.3245 15.7854 86.4728 16.2973V16.297C85.6988 16.7352 85.2077 17.5153 84.8777 18.3183C84.8788 17.99 84.8786 17.6619 84.8784 17.3339C84.8782 16.9236 84.8779 16.5135 84.8802 16.1032L84.8348 16.103C83.8343 16.0981 82.8335 16.0932 81.833 16.106C81.8366 18.6277 81.8359 21.1496 81.8353 23.6714V23.7019C81.8349 25.468 81.8345 27.2342 81.8355 29.0002H84.8783C84.879 27.6292 84.8788 26.2582 84.8785 24.8872L84.8785 24.7587C84.8784 24.1161 84.8783 23.4735 84.8783 22.831C84.8536 21.9377 84.9273 21.014 85.3184 20.1974C85.678 19.4256 86.3723 18.7529 87.2487 18.6535C87.9667 18.5805 88.7261 18.7496 89.3348 19.1435C89.3359 18.6862 89.3357 18.2289 89.3355 17.7717C89.3352 17.1997 89.335 16.6277 89.3373 16.0556Z" fill="white"/>
<path d="M64.8341 16.1008L64.8338 16.1008C64.6647 16.1017 64.4957 16.1025 64.3267 16.1032V16.1035C64.3281 18.3005 64.3279 20.4974 64.3276 22.6942C64.3274 24.7962 64.3271 26.8982 64.3284 29.0002H67.3927C67.3945 27.263 67.3937 25.5257 67.393 23.7884C67.3918 21.2285 67.3906 18.6685 67.3977 16.1085C66.5437 16.0923 65.6886 16.0966 64.8341 16.1008Z" fill="white"/>
<path fill-rule="evenodd" clip-rule="evenodd" d="M99.4362 16.3864C98.0612 15.7608 96.4988 15.6766 95.0176 15.8652C93.4621 16.0614 91.9474 16.7933 90.96 18.0337C90.0581 19.141 89.6191 20.5639 89.5352 21.9756C89.4112 23.6396 89.6888 25.4052 90.6657 26.7937C91.4981 27.992 92.8122 28.8156 94.2314 29.1192C95.4179 29.3684 96.6588 29.3695 97.8453 29.1226C99.2333 28.8372 100.529 28.0693 101.389 26.936C102.229 25.8688 102.65 24.5229 102.746 23.1801C102.842 21.8043 102.703 20.3792 102.132 19.1114C101.596 17.9197 100.629 16.9245 99.4362 16.3864ZM93.9075 19.1161C94.4545 18.6057 95.2003 18.356 95.938 18.315C96.8656 18.2541 97.853 18.5162 98.5196 19.1909C99.2333 19.892 99.509 20.9091 99.5854 21.8799C99.6402 22.9417 99.5962 24.0482 99.1508 25.0323C98.8557 25.6955 98.3156 26.2564 97.6344 26.5218C96.8371 26.828 95.9416 26.846 95.1186 26.6326C94.2813 26.4125 93.5707 25.8071 93.1842 25.0364C92.6868 24.044 92.6123 22.8963 92.7153 21.8076C92.8086 20.8177 93.1532 19.7996 93.9075 19.1161Z" fill="white"/>
<path fill-rule="evenodd" clip-rule="evenodd" d="M124.2 16.4833C122.794 15.7732 121.159 15.67 119.618 15.8607C118.376 16.0204 117.156 16.4919 116.208 17.324C115.051 18.3208 114.372 19.7863 114.172 21.2858C113.982 22.7848 114.046 24.3638 114.657 25.7667C115.244 27.1433 116.401 28.2614 117.793 28.8089C119.166 29.3498 120.694 29.4104 122.14 29.1765C123.619 28.9324 125.019 28.1548 125.935 26.9581C126.913 25.7221 127.333 24.1227 127.331 22.5644C127.353 21.5214 127.222 20.4637 126.851 19.484C126.376 18.2037 125.426 17.0962 124.2 16.4833ZM118.199 19.3982C118.751 18.7333 119.598 18.3654 120.452 18.3175C121.323 18.2569 122.254 18.4581 122.924 19.0469C123.542 19.5596 123.885 20.3275 124.041 21.1006C124.218 22.0075 124.216 22.9459 124.067 23.8572C123.948 24.5359 123.714 25.2133 123.269 25.7506C122.821 26.2907 122.154 26.6196 121.465 26.7209C120.727 26.8313 119.948 26.7785 119.257 26.4809C118.512 26.1653 117.934 25.52 117.63 24.7776C117.264 23.8932 117.191 22.9132 117.264 21.9671C117.334 21.0508 117.594 20.1107 118.199 19.3982Z" fill="white"/>
<path d="M3 20.7278C5.21995 20.7286 7.43991 20.7285 9.65986 20.7284C12.197 20.7283 14.7342 20.7283 17.2714 20.7294C17.2719 23.9008 17.2718 27.0718 17.2716 30.2429C17.2715 31.8285 17.2714 33.4143 17.2714 35H3V20.7278Z" fill="white"/>
<path d="M29.4355 20.7285C25.8665 20.7283 22.2977 20.7282 18.7294 20.7294C18.7284 23.4478 18.7286 26.1664 18.7287 28.8852C18.7288 30.9234 18.7289 32.9617 18.7286 35H32.9999V20.7286C31.8118 20.7286 30.6236 20.7285 29.4355 20.7285Z" fill="white"/>
</svg>

<svg xmlns="http://www.w3.org/2000/svg" width="146" height="40" fill="currentColor" viewBox="0 0 146 40"><path fill="#fff" d="M3 5h14.271v14.271H3V5zM18.729 5H33v14.271H18.728V8.564 5zM136.194 9.91c-1.483-.408-3.183-.328-4.498.528-.849.543-1.465 1.412-1.741 2.376-.227.74-.217 1.508-.206 2.275.005.34.009.678-.007 1.014h-.143c-.666-.006-1.332-.01-1.997.005.008.767.005 1.534.003 2.3l-.001.172c.363.008.726.007 1.088.006.354 0 .707-.001 1.06.006-.004 2.44-.003 4.881-.002 7.322l.001 3.086h3.086v-2.61l.001-7.802c1.505-.002 3.011-.002 4.517 0 .002.969.002 1.938.001 2.907-.001 1.243-.002 2.485.003 3.727.014 1.03.189 2.132.871 2.945.591.72 1.528 1.05 2.434 1.117.954.068 1.939-.05 2.822-.432V26.32c-.677.452-1.611.632-2.348.22-.439-.243-.61-.762-.666-1.231-.063-.532-.057-1.068-.051-1.603.003-.264.006-.529 0-.793v-1.571c.001-.918.001-1.835-.001-2.752.324 0 .649-.002.974-.004.697-.005 1.394-.01 2.092.019v-2.507h-1.115a119.32 119.32 0 00-1.939.007 112.32 112.32 0 01-.011-2.322c.002-.514.003-1.028-.001-1.542-.366.11-.731.223-1.097.336-.65.201-1.301.402-1.957.589a60.614 60.614 0 00-.01 1.705v.001c.001.409.002.818-.003 1.226H135.71c-.957 0-1.915 0-2.872-.002.006-.255.002-.511-.001-.768-.008-.515-.015-1.031.059-1.543.091-.603.441-1.206 1.029-1.44.741-.304 1.57-.101 2.275.209-.002-.343-.001-.686-.001-1.03.002-.538.003-1.077-.005-1.615zM67.32 11.223c-.412-.487-1.086-.7-1.708-.605-.858.098-1.589.877-1.566 1.75-.035.831.632 1.577 1.434 1.72.772.17 1.658-.157 2.054-.86a1.76 1.76 0 00-.214-2.005zM46.446 11h-4.489c-.002 6 0 12 0 18H44.895v-4.992-3.068c.003-.73.001-1.462 0-2.194v-.001c-.004-1.209-.008-2.417.016-3.625.056.088.107.18.155.274.69 1.708 1.378 3.418 2.066 5.128 1.138 2.828 2.275 5.656 3.422 8.48.306-.005.612-.003.918-.002.434.002.867.004 1.3-.011 1.011-2.586 2.037-5.167 3.062-7.747l.001-.002.001-.003.001-.002c.772-1.943 1.545-3.887 2.31-5.832.048-.1.102-.196.163-.289.013.199.02.398.019.597-.003 1.945-.002 3.89-.002 5.834.002 2.483.003 4.966-.004 7.448.68.01 1.36.008 2.04.007.359-.001.717-.002 1.075 0v-1.8c-.001-5.4-.002-10.8 0-16.198-.49 0-.98 0-1.47-.002-.95-.002-1.9-.005-2.848.01a1581.59 1581.59 0 01-3.275 8.066l-.001.003a2463.08 2463.08 0 00-2.128 5.226c-.238-.56-.46-1.127-.682-1.693v-.001l-.001-.001c-.127-.324-.254-.648-.384-.97-.633-1.605-1.267-3.21-1.902-4.814l-.002-.005c-.767-1.94-1.535-3.88-2.3-5.82zM78.69 16.1a8.449 8.449 0 00-4.584-.013c-1.367.394-2.622 1.233-3.424 2.419-.958 1.39-1.296 3.125-1.221 4.789.075 1.6.706 3.198 1.868 4.318 1.07 1.039 2.543 1.599 4.02 1.677 1.445.07 2.958-.123 4.22-.874-.006-.494-.006-.988-.005-1.482.001-.438.002-.875-.002-1.313-.814.595-1.763 1.021-2.77 1.137-1.018.077-2.11-.168-2.887-.86-.75-.639-1.148-1.601-1.247-2.565-.134-1.23.045-2.567.817-3.573a3.623 3.623 0 012.564-1.424c1.265-.16 2.527.323 3.523 1.083.004-.43.003-.861.002-1.291-.001-.554-.002-1.107.007-1.66a3.706 3.706 0 00-.88-.367zM112.093 16.336c-1.35-.512-2.844-.696-4.271-.445-1.207.215-2.39.841-3.072 1.886-.596.897-.673 2.053-.426 3.08.166.695.591 1.312 1.153 1.75.635.488 1.37.804 2.102 1.12h.001c.188.08.375.16.56.244l.053.025c.468.22.958.45 1.295.857.373.547.26 1.441-.369 1.754-.657.315-1.424.31-2.13.195a6.753 6.753 0 01-2.8-1.208c-.007.587-.006 1.174-.005 1.762v.004c.001.406.002.811 0 1.217.986.44 2.065.651 3.138.72 1.511.057 3.154-.238 4.295-1.304 1.195-1.056 1.483-2.927.803-4.343-.362-.756-1.054-1.28-1.768-1.682-.408-.236-.844-.416-1.279-.596-.533-.22-1.066-.44-1.547-.762-.512-.325-.657-1.037-.448-1.58.264-.548.898-.792 1.474-.815a5.436 5.436 0 013.242.958v-1.18c0-.553.001-1.105-.001-1.657zM89.337 16.056c-.93-.314-2.013-.27-2.864.241-.774.438-1.265 1.218-1.595 2.021v-.984c0-.41 0-.82.002-1.23l-.045-.001c-1-.005-2.001-.01-3.002.003.004 2.522.003 5.044.002 7.565v5.33h3.043v-4.242-1.928c-.024-.893.05-1.817.44-2.634.36-.771 1.054-1.444 1.93-1.543a3.282 3.282 0 012.087.49v-1.372c0-.572 0-1.144.002-1.716zM64.834 16.1l-.507.003v6.591L64.329 29h3.065v-5.212c-.001-2.56-.002-5.12.005-7.68-.854-.016-1.71-.011-2.564-.007z"/><path fill="#fff" fill-rule="evenodd" d="M99.436 16.386c-1.375-.625-2.937-.71-4.418-.52-1.556.195-3.07.927-4.058 2.168-.902 1.107-1.34 2.53-1.425 3.942-.124 1.664.154 3.43 1.13 4.818.833 1.198 2.147 2.022 3.566 2.325 1.187.25 2.428.25 3.614.004 1.388-.286 2.684-1.054 3.544-2.187.84-1.067 1.261-2.413 1.357-3.756.096-1.376-.043-2.8-.614-4.069-.536-1.191-1.503-2.187-2.696-2.725zm-5.529 2.73c.547-.51 1.293-.76 2.031-.801.928-.06 1.915.201 2.582.876.713.701.989 1.718 1.065 2.689.055 1.062.011 2.168-.434 3.152-.295.663-.835 1.224-1.517 1.49-.797.306-1.692.324-2.515.11-.838-.22-1.548-.825-1.935-1.596-.497-.992-.572-2.14-.469-3.228.094-.99.438-2.008 1.192-2.692zM124.2 16.483c-1.406-.71-3.041-.813-4.582-.622-1.242.16-2.462.63-3.41 1.463-1.157.997-1.836 2.462-2.036 3.962-.19 1.499-.126 3.078.485 4.48a5.723 5.723 0 003.136 3.043c1.373.54 2.901.601 4.347.367 1.479-.244 2.879-1.021 3.795-2.218.978-1.236 1.398-2.835 1.396-4.394.022-1.043-.109-2.1-.48-3.08-.475-1.28-1.425-2.388-2.651-3zm-6.001 2.915c.552-.665 1.399-1.033 2.253-1.08.871-.061 1.802.14 2.472.729.618.513.961 1.28 1.117 2.054.177.907.175 1.845.026 2.756-.119.679-.353 1.356-.798 1.894-.448.54-1.115.869-1.804.97-.738.11-1.517.058-2.208-.24-.745-.316-1.323-.961-1.627-1.703-.366-.885-.439-1.865-.366-2.81.07-.917.33-1.857.935-2.57z" clip-rule="evenodd"/><path fill="#fff" d="M3 20.728h6.66l7.611.001a43098.809 43098.809 0 010 14.271H3V20.728zM29.436 20.729H18.729V35h14.27V20.729h-3.564z"/></svg>
